coingecko.svg

<svg xmlns="http://www.w3.org/2000/svg" width="1615" height="401" fill="#000"><path d="M658.08 153.172c-4.435-17.289-15.617-29.939-37.482-29.939-32.267 0-45.761 28.455-45.761 57.333s13.494 57.349 45.761 57.349c23.426 0 36.264-17.492 38.357-39.42h25.723c-2.109 36.046-27.613 60.91-64.034 60.91-45.12 0-72.107-35.843-72.107-78.855s26.894-78.917 72.014-78.917c33.937.203 60.706 18.976 63.877 51.445l-26.348.094zm42.167 47.976c0-33.313 20.022-57.334 55.022-57.334s55.022 24.021 55.022 57.334-20.022 57.567-55.022 57.567-55.022-24.036-55.022-57.567zm86.008 0c0-18.742-9.48-38.358-30.986-38.358s-30.986 19.601-30.986 38.358 9.48 38.592 30.986 38.592 30.986-19.617 30.986-38.592zm44.668-95.924h24.036v22.771h-24.036v-22.771zm0 41.544h24.036v108.997h-24.036V146.768zm50.191.002h22.771v16.024l.422.422a39.03 39.03 0 0 1 33.953-19.413c23.614 0 38.576 12.651 38.576 37.092v74.857H952.8v-68.516c-.421-17.07-7.168-24.442-21.287-24.442-16.024 0-26.363 12.635-26.363 28.659v64.315h-24.036V146.77zm255.746 108.996h-16.87l-3.99-17.711c-14.06 16.024-26.99 21.287-45.3 21.287-45.08.032-72.134-35.889-72.134-78.854s27.054-78.855 72.104-78.855c32.8 0 60.51 17.492 64.51 51.445h-25.73c-2.53-19.819-19.8-29.939-38.78-29.939-32.26 0-45.76 28.456-45.76 57.333s13.5 57.349 45.76 57.349c26.98.422 41.73-15.805 42.17-41.325h-40.06V176.49h64.04l.04 79.276zm44.09-48.293c0 17.086 9.27 32.267 29.29 32.267 13.92 0 22.35-6.123 26.55-18.133h22.79c-5.26 23.817-25.5 37.108-49.34 37.108-34.14 0-53.33-23.833-53.33-57.349 0-31.001 20.3-57.552 52.71-57.552 34.36 0 55.44 30.986 51.44 63.659h-80.11zm56.08-15.805c-.84-15.181-11.18-28.878-27.41-28.878-16.66 0-28.03 12.635-28.67 28.878h56.08zm115.97-8.434c-1.9-13.291-11.6-20.444-24.88-20.444-12.49 0-29.93 6.528-29.93 39.623 0 18.132 8.01 37.327 28.87 37.327 13.92 0 23.62-9.278 25.94-24.88h24.04c-4.44 28.253-21.86 43.855-49.98 43.855-34.15 0-52.91-24.254-52.91-56.302 0-32.891 17.93-58.599 53.76-58.599 25.3 0 46.85 12.651 49.13 39.42H1353zm44.33-78.01h24.03v85.602l43.44-44.058h29.52l-41.75 40.044 45.74 68.953h-29.36l-33.31-52.929-14.34 13.916v39.044h-23.97V105.224zm107.48 95.924c0-33.313 20.03-57.334 55.03-57.334s55.03 24.021 55.03 57.334-20.03 57.567-55.03 57.567-55.03-24.036-55.03-57.567zm86.03 0c0-18.742-9.5-38.358-31-38.358-21.51 0-30.99 19.601-30.99 38.358s9.48 38.592 30.99 38.592c21.5 0 31-19.617 31-38.592h0z"/><path d="M365.733 309.436c21.754-32.879 33.27-71.471 33.091-110.895A199.35 199.35 0 0 0 198.603.116c-39.424.176-77.91 12.04-110.592 34.09a199.33 199.33 0 0 0-73.014 89.786 199.33 199.33 0 0 0-10.826 115.22 199.32 199.32 0 0 0 31.381 73.616c35.105 56.228 117.715 99.885 194.023 83.984 1.751-.321 3.51-.67 5.278-1.046l-.017-.043-.039-.095.034-.009a199.36 199.36 0 0 0 41.776-12.362c36.354-15.252 67.37-40.942 89.125-73.821zm-130.901 86.183l.033-.008c-8.356-58.333 42.621-115.463 71.342-144.7 2.707-2.741 6.017-5.912 9.631-9.374l.001-.001h.001l15.623-15.335c37.897-35.052 45.898-77.104-30.889-98.017-14.354-4.154-29.231-10.031-44.295-15.983h0l-.34-.134-.02-.084.033.023-.098-.28c-.258-.978-.679-2.016-1.276-3.115-9.173-19.54-33.852-21.913-54.35-15.534l.184.014-.198.047c-17.773-4.186-35.328-5.669-52.179-1.562-73.655 20.29-85.63 56.19-88.537 99.432l-.478 5.757-.002.019c-3.649 44.071-6.438 77.755-23.466 116.044a199.27 199.27 0 0 0 23.631 28.199A199.33 199.33 0 0 0 161.49 395.12a199.34 199.34 0 0 0 73.342.499zm-31.546-223.855a38.55 38.55 0 0 0 6.488-21.419c0-5.061-.997-10.072-2.934-14.748a38.53 38.53 0 0 0-8.356-12.502 38.55 38.55 0 0 0-12.505-8.351c-4.677-1.935-9.689-2.93-14.75-2.928-7.624 0-15.077 2.261-21.416 6.497s-11.279 10.257-14.196 17.301a38.55 38.55 0 0 0 8.362 42.008c5.393 5.39 12.262 9.06 19.74 10.545a38.54 38.54 0 0 0 22.272-2.2c7.043-2.92 13.061-7.862 17.295-14.203zm-31.956 5.789c15.526 0 28.112-12.587 28.112-28.113s-12.586-28.112-28.112-28.112-28.112 12.587-28.112 28.112 12.586 28.113 28.112 28.113z" fill-rule="evenodd"/><path d="M347.577 207.224c-9.698 8.839-21.24 15.383-32.985 21.162a209.68 209.68 0 0 1-37.014 13.478c-12.744 3.295-26.035 5.779-39.498 4.561s-27.222-5.795-36.14-15.884l.422-.484c10.933 7.091 23.552 9.589 36.109 9.949a169.56 169.56 0 0 0 37.951-3.124c12.62-2.642 24.965-6.459 36.874-11.401 11.916-4.92 23.708-10.62 33.859-18.741l.422.484z"/></svg>

<svg width="1615" height="401" viewBox="0 0 1615 401" fill="none" xmlns="http://www.w3.org/2000/svg">
<path d="M658.08 153.172C653.645 135.883 642.463 123.233 620.598 123.233C588.331 123.233 574.837 151.688 574.837 180.566C574.837 209.443 588.331 237.915 620.598 237.915C644.024 237.915 656.862 220.423 658.955 198.495H684.678C682.569 234.541 657.065 259.405 620.644 259.405C575.524 259.405 548.537 223.562 548.537 180.55C548.537 137.539 575.431 101.633 620.551 101.633C654.488 101.836 681.257 120.609 684.428 153.078L658.08 153.172Z" fill="white"/>
<path d="M700.247 201.148C700.247 167.835 720.269 143.814 755.269 143.814C790.269 143.814 810.291 167.835 810.291 201.148C810.291 234.461 790.269 258.715 755.269 258.715C720.269 258.715 700.247 234.679 700.247 201.148ZM786.255 201.148C786.255 182.406 776.775 162.79 755.269 162.79C733.763 162.79 724.283 182.391 724.283 201.148C724.283 219.905 733.763 239.74 755.269 239.74C776.775 239.74 786.255 220.123 786.255 201.148Z" fill="white"/>
<path d="M830.923 105.224H854.959V127.995H830.923V105.224ZM830.923 146.768H854.959V255.765H830.923V146.768Z" fill="white"/>
<path d="M881.114 146.77H903.885V162.794L904.307 163.216C907.759 157.28 912.716 152.36 918.678 148.952C924.639 145.543 931.393 143.767 938.26 143.803C961.874 143.803 976.836 156.454 976.836 180.895V255.752H952.8V187.236C952.379 170.166 945.632 162.794 931.513 162.794C915.489 162.794 905.15 175.429 905.15 191.453V255.768H881.114V146.77Z" fill="white"/>
<path d="M1136.86 255.766H1119.99L1116 238.055C1101.94 254.079 1089.01 259.342 1070.7 259.342C1025.62 259.374 998.566 223.453 998.566 180.488C998.566 137.523 1025.62 101.633 1070.67 101.633C1103.47 101.633 1131.18 119.125 1135.18 153.078H1109.45C1106.92 133.259 1089.65 123.139 1070.67 123.139C1038.41 123.139 1024.91 151.595 1024.91 180.472C1024.91 209.35 1038.41 237.821 1070.67 237.821C1097.65 238.243 1112.4 222.016 1112.84 196.496H1072.78V176.49H1136.82L1136.86 255.766Z" fill="white"/>
<path d="M1180.95 207.473C1180.95 224.559 1190.22 239.74 1210.24 239.74C1224.16 239.74 1232.59 233.617 1236.79 221.607H1259.58C1254.32 245.424 1234.08 258.715 1210.24 258.715C1176.1 258.715 1156.91 234.882 1156.91 201.366C1156.91 170.365 1177.21 143.814 1209.62 143.814C1243.98 143.814 1265.06 174.8 1261.06 207.473H1180.95ZM1237.03 191.668C1236.19 176.487 1225.85 162.79 1209.62 162.79C1192.96 162.79 1181.59 175.425 1180.95 191.668H1237.03Z" fill="white"/>
<path d="M1353 183.234C1351.1 169.943 1341.4 162.79 1328.12 162.79C1315.63 162.79 1298.19 169.318 1298.19 202.413C1298.19 220.545 1306.2 239.74 1327.06 239.74C1340.98 239.74 1350.68 230.462 1353 214.86H1377.04C1372.6 243.113 1355.18 258.715 1327.06 258.715C1292.91 258.715 1274.15 234.461 1274.15 202.413C1274.15 169.522 1292.08 143.814 1327.91 143.814C1353.21 143.814 1374.76 156.465 1377.04 183.234H1353Z" fill="white"/>
<path d="M1397.33 105.224H1421.36V190.826L1464.8 146.768H1494.32L1452.57 186.812L1498.31 255.765H1468.95L1435.64 202.836L1421.3 216.752V255.796H1397.33V105.224Z" fill="white"/>
<path d="M1504.81 201.148C1504.81 167.835 1524.84 143.814 1559.84 143.814C1594.84 143.814 1614.87 167.835 1614.87 201.148C1614.87 234.461 1594.84 258.715 1559.84 258.715C1524.84 258.715 1504.81 234.679 1504.81 201.148ZM1590.84 201.148C1590.84 182.406 1581.34 162.79 1559.84 162.79C1538.33 162.79 1528.85 182.391 1528.85 201.148C1528.85 219.905 1538.33 239.74 1559.84 239.74C1581.34 239.74 1590.84 220.123 1590.84 201.148V201.148Z" fill="white"/>
<path fill-rule="evenodd" clip-rule="evenodd" d="M365.733 309.436C387.487 276.557 399.003 237.965 398.824 198.541C398.58 145.679 377.35 95.0786 339.803 57.8679C302.255 20.6572 251.465 -0.1163 198.603 0.116188C159.179 0.292665 120.693 12.1559 88.0108 34.2057C55.3291 56.2555 29.92 87.5015 14.9966 123.992C0.0732543 160.483 -3.69405 200.58 4.17113 239.212C9.57286 265.744 20.2948 290.767 35.5526 312.828C35.5514 312.831 35.5502 312.834 35.549 312.836C70.6574 369.056 153.268 412.713 229.576 396.812C231.327 396.491 233.086 396.142 234.854 395.766L234.837 395.723L234.798 395.628L234.832 395.619C249.095 393.05 263.107 388.92 276.608 383.257C312.962 368.005 343.978 342.315 365.733 309.436ZM234.832 395.619L234.865 395.611C226.509 337.278 277.486 280.148 306.207 250.911C308.914 248.17 312.224 244.999 315.838 241.537L315.839 241.536L315.84 241.536C320.737 236.845 326.192 231.619 331.463 226.201C369.36 191.149 377.361 149.097 300.574 128.184C286.22 124.03 271.343 118.153 256.279 112.201L256.279 112.201L255.939 112.067C255.932 112.039 255.926 112.011 255.919 111.983L255.952 112.006C255.92 111.912 255.887 111.819 255.854 111.726C255.596 110.748 255.175 109.71 254.578 108.611C245.405 89.0712 220.726 86.698 200.228 93.0771C200.288 93.0814 200.349 93.0861 200.412 93.0913L200.214 93.1379C182.441 88.9523 164.886 87.4686 148.035 91.5761C74.3798 111.866 62.4045 147.766 59.4979 191.008C59.3362 192.947 59.1773 194.866 59.02 196.765L59.0185 196.784C55.3692 240.855 52.5801 274.539 35.5526 312.828C42.5109 322.89 50.4126 332.335 59.1833 341.027C87.1859 368.779 122.789 387.603 161.49 395.12C185.82 399.845 210.686 399.968 234.832 395.619Z" fill="white"/>
<path fill-rule="evenodd" clip-rule="evenodd" d="M203.286 171.764C207.519 165.423 209.777 157.969 209.774 150.345C209.774 145.284 208.777 140.273 206.84 135.597C204.903 130.921 202.063 126.673 198.484 123.095C194.904 119.517 190.655 116.68 185.979 114.744C181.302 112.809 176.29 111.814 171.229 111.816C163.605 111.816 156.152 114.077 149.813 118.313C143.474 122.549 138.534 128.57 135.617 135.614C132.7 142.658 131.938 150.409 133.426 157.886C134.915 165.364 138.587 172.232 143.979 177.622C149.372 183.012 156.241 186.682 163.719 188.167C171.197 189.653 178.948 188.887 185.991 185.967C193.034 183.047 199.052 178.105 203.286 171.764ZM171.33 177.553C186.856 177.553 199.442 164.966 199.442 149.44C199.442 133.915 186.856 121.328 171.33 121.328C155.804 121.328 143.218 133.915 143.218 149.44C143.218 164.966 155.804 177.553 171.33 177.553Z" fill="white"/>
<path d="M347.577 207.224C337.879 216.063 326.337 222.607 314.592 228.386C302.704 234.03 290.312 238.543 277.578 241.864C264.834 245.159 251.543 247.643 238.08 246.425C224.618 245.206 210.858 240.63 201.94 230.541L202.362 230.057C213.295 237.148 225.914 239.646 238.471 240.006C251.198 240.393 263.929 239.345 276.422 236.882C289.042 234.24 301.387 230.423 313.296 225.481C325.212 220.561 337.004 214.861 347.155 206.74L347.577 207.224Z" fill="white"/>
</svg>
